humanity-icon-theme/Humanity/actions/22/process-stop.svg

<?xml version="1.0" encoding="UTF-8" standalone="no"?>
<!-- Created with Inkscape (http://www.inkscape.org/) -->
<svg
   xmlns:svg="http://www.w3.org/2000/svg"
   xmlns="http://www.w3.org/2000/svg"
   xmlns:xlink="http://www.w3.org/1999/xlink"
   version="1.0"
   width="22"
   height="22"
   id="svg2">
  <defs
     id="defs4">
    <linearGradient
       id="linearGradient4873">
      <stop
         id="stop4875"
         style="stop-color:#ffffff;stop-opacity:1"
         offset="0" />
      <stop
         id="stop4877"
         style="stop-color:#ffffff;stop-opacity:0"
         offset="1" />
    </linearGradient>
    <linearGradient
       x1="63.397362"
       y1="-12.489107"
       x2="63.397362"
       y2="5.4675598"
       id="linearGradient2406"
       xlink:href="#linearGradient4873"
       gradientUnits="userSpaceOnUse"
       gradientTransform="matrix(1.0862728,0,0,1.0862481,-56.56661,14.813638)" />
    <linearGradient
       id="linearGradient2490">
      <stop
         id="stop2492"
         style="stop-color:#791235;stop-opacity:1"
         offset="0" />
      <stop
         id="stop2494"
         style="stop-color:#dd3b27;stop-opacity:1"
         offset="1" />
    </linearGradient>
    <linearGradient
       x1="18.379412"
       y1="44.980297"
       x2="18.379412"
       y2="3.0816143"
       id="linearGradient2411"
       xlink:href="#linearGradient2490"
       gradientUnits="userSpaceOnUse"
       gradientTransform="matrix(0.5160413,0,0,0.5160413,-1.384991,-1.3849911)" />
    <linearGradient
       id="linearGradient3242">
      <stop
         id="stop3244"
         style="stop-color:#f8b17e;stop-opacity:1"
         offset="0" />
      <stop
         id="stop3246"
         style="stop-color:#e35d4f;stop-opacity:1"
         offset="0.26238" />
      <stop
         id="stop3248"
         style="stop-color:#c6262e;stop-opacity:1"
         offset="0.66093999" />
      <stop
         id="stop3250"
         style="stop-color:#690b54;stop-opacity:1"
         offset="1" />
    </linearGradient>
    <radialGradient
       cx="23.895569"
       cy="3.9900031"
       r="20.397499"
       fx="23.895569"
       fy="3.9900031"
       id="radialGradient2409"
       xlink:href="#linearGradient3242"
       gradientUnits="userSpaceOnUse"
       gradientTransform="matrix(0,1.2316137,-1.6257082,0,17.486581,-29.720783)" />
  </defs>
  <g
     id="layer1">
    <g
       id="g2502">
      <path
         d="M 11.000002,0.501785 C 5.207449,0.501785 0.501785,5.2074466 0.501785,10.999999 C 0.501785,16.792553 5.207449,21.498218 11.000002,21.498215 C 16.792552,21.498215 21.498221,16.792553 21.498215,10.999999 C 21.498215,5.2074466 16.792552,0.501785 11.000002,0.501785 z"
         id="path2555"
         style="fill:url(#radialGradient2409);fill-opacity:1;stroke:url(#linearGradient2411);stroke-width:1.00365424;stroke-linecap:round;stroke-linejoin:round;stroke-miterlimit:4;stroke-dasharray:none;stroke-dashoffset:0;stroke-opacity:1" />
      <path
         d="M 20.499999,10.999663 C 20.499999,16.246537 16.24639,20.499999 11.00012,20.499999 C 5.7533674,20.499999 1.4999999,16.24649 1.4999999,10.999663 C 1.4999999,5.7530318 5.7533674,1.5000007 11.00012,1.5000007 C 16.24639,1.5000007 20.499999,5.7530318 20.499999,10.999663 L 20.499999,10.999663 z"
         id="path2463"
         style="opacity:0.4;fill:none;fill-opacity:1;fill-rule:nonzero;stroke:url(#linearGradient2406);stroke-width:0.99999994;stroke-miterlimit:4;stroke-dasharray:none;stroke-opacity:1" />
    </g>
    <g
       transform="translate(-25.729614,2.7875946e-2)"
       id="g2478">
      <path
         d="M 33.307687,4.9721229 L 31.729614,6.5501961 L 34.985428,9.7893991 C 35.085451,9.8906831 35.085451,10.053564 34.985428,10.154847 L 31.729614,13.39405 L 33.307687,14.972124 L 36.54689,11.732921 C 36.648173,11.632898 36.811054,11.632898 36.912338,11.732921 L 40.151541,14.972124 L 41.729614,13.39405 L 38.490411,10.154847 C 38.390389,10.053564 38.390389,9.8906831 38.490411,9.7893991 L 41.729614,6.5501961 L 40.151541,4.9721229 L 36.912338,8.2113257 C 36.811054,8.3113486 36.648173,8.3113486 36.54689,8.2113257 L 33.307687,4.9721229 z"
         id="path3243"
         style="opacity:0.2;fill:#000000;fill-opacity:1;fill-rule:evenodd;stroke:none;stroke-width:1;stroke-linecap:round;stroke-linejoin:round;stroke-miterlimit:4;stroke-dasharray:none;stroke-opacity:1" />
      <path
         d="M 33.307687,5.9721242 L 31.729614,7.5501972 L 34.985428,10.789399 C 35.085451,10.890683 35.085451,11.053564 34.985428,11.154848 L 31.729614,14.394051 L 33.307687,15.972124 L 36.54689,12.732921 C 36.648173,12.632898 36.811054,12.632898 36.912338,12.732921 L 40.151541,15.972124 L 41.729614,14.394051 L 38.490411,11.154848 C 38.390389,11.053564 38.390389,10.890683 38.490411,10.789399 L 41.729614,7.5501972 L 40.151541,5.9721242 L 36.912338,9.2113261 C 36.811054,9.3113491 36.648173,9.3113491 36.54689,9.2113261 L 33.307687,5.9721242 z"
         id="path3256"
         style="fill:#ffffff;fill-opacity:1;fill-rule:evenodd;stroke:none;stroke-width:1;stroke-linecap:round;stroke-linejoin:round;stroke-miterlimit:4;stroke-dasharray:none;stroke-opacity:1" />
    </g>
  </g>
</svg>

<?xml version="1.0" encoding="UTF-8" standalone="no"?>
<!-- Created with Inkscape (http://www.inkscape.org/) -->
<svg id="svg2" xmlns="http://www.w3.org/2000/svg" height="22" width="22" version="1.0" xmlns:xlink="http://www.w3.org/1999/xlink">
 <defs id="defs4">
  <linearGradient id="linearGradient2406" y2="5.4676" gradientUnits="userSpaceOnUse" x2="63.397" gradientTransform="matrix(1.0863 0 0 1.0862 -56.567 14.814)" y1="-12.489" x1="63.397">
   <stop id="stop4875" style="stop-color:#fff" offset="0"/>
   <stop id="stop4877" style="stop-color:#fff;stop-opacity:0" offset="1"/>
  </linearGradient>
  <linearGradient id="linearGradient2411" y2="3.0816" gradientUnits="userSpaceOnUse" x2="18.379" gradientTransform="matrix(.51604 0 0 .51604 -1.385 -1.385)" y1="44.98" x1="18.379">
   <stop id="stop2492" style="stop-color:#791235" offset="0"/>
   <stop id="stop2494" style="stop-color:#dd3b27" offset="1"/>
  </linearGradient>
  <radialGradient id="radialGradient2409" gradientUnits="userSpaceOnUse" cy="3.99" cx="23.896" gradientTransform="matrix(0 1.2316 -1.6257 0 17.487 -29.721)" r="20.397">
   <stop id="stop3244" style="stop-color:#f8b17e" offset="0"/>
   <stop id="stop3246" style="stop-color:#e35d4f" offset=".26238"/>
   <stop id="stop3248" style="stop-color:#c6262e" offset=".66094"/>
   <stop id="stop3250" style="stop-color:#690b54" offset="1"/>
  </radialGradient>
 </defs>
 <g id="layer1">
  <g id="g2502">
   <path id="path2555" style="stroke-linejoin:round;stroke:url(#linearGradient2411);stroke-linecap:round;stroke-width:1.0037;fill:url(#radialGradient2409)" d="m11 0.50178c-5.7926 0-10.498 4.7056-10.498 10.498-0.00022 5.793 4.7054 10.498 10.498 10.498 5.793 0 10.498-4.705 10.498-10.498 0-5.7926-4.705-10.498-10.498-10.498z"/>
   <path id="path2463" style="opacity:.4;stroke:url(#linearGradient2406);fill:none" d="m20.5 11c0 5.247-4.254 9.5-9.5 9.5-5.2466 0-9.5-4.254-9.5-9.5 0-5.247 4.2534-9.5 9.5-9.5 5.246 0 9.5 4.253 9.5 9.5z"/>
  </g>
  <g id="g2478" transform="translate(-25.73 .027876)">
   <path id="path3243" style="opacity:.2;fill-rule:evenodd" d="m33.308 4.9721l-1.578 1.5781 3.255 3.2392c0.1 0.1013 0.1 0.2646 0 0.3656l-3.255 3.239 1.578 1.578 3.239-3.239c0.101-0.1 0.264-0.1 0.365 0l3.24 3.239 1.578-1.578-3.24-3.239c-0.1-0.101-0.1-0.2643 0-0.3656l3.24-3.2392-1.578-1.5781-3.24 3.2392c-0.101 0.1-0.264 0.1-0.365 0l-3.239-3.2392z"/>
   <path id="path3256" style="fill:#fff;fill-rule:evenodd" d="m33.308 5.9721l-1.578 1.5781 3.255 3.2388c0.1 0.102 0.1 0.265 0 0.366l-3.255 3.239 1.578 1.578 3.239-3.239c0.101-0.1 0.264-0.1 0.365 0l3.24 3.239 1.578-1.578-3.24-3.239c-0.1-0.101-0.1-0.264 0-0.366l3.24-3.2388-1.578-1.5781-3.24 3.2392c-0.101 0.1-0.264 0.1-0.365 0l-3.239-3.2392z"/>
  </g>
 </g>
</svg>
